X:1
T:I char
T:I char
T:The Balkan Princess
T:Paul Rubens
C:Paul Rubens
%%score 1 { ( 2 4 ) | 3 }
L:1/8
Q:1/4=156
M:6/8
K:F
V:1 treble nm="Magda"
V:2 treble nm="Piano"
V:4 treble 
V:3 bass 
V:1
"^Allegretto" z | z6 | z6 | z6 | z2 z z =B, C | F2 D F2 D | E3- E D C | F2 D F2 D | G3- G E C | %9
w: ||||When I|first made up my|mind _ In- to|ser- vice I would|go, _ I de-|
 A ^G A c =B A | =G2 E A2 E | F E F G F D | E2 F G A =B | c2 A c2 A | c3- c =B, C | F2 D F2 D | %16
w: cid- ed that, no mat- ter|how well paid, I'd|not be a cook or a|par- lour- maid, Nor a|house- maid \- oh dear|no! _ Now a|char- la- dy I|
 E3- E D C | F2 D F2 D | G3- G E C | A ^G A c =B A | G2 E A2 E | F E F G F D | %22
w: find, _ A tre-|men- dous pull has|got, _ I can|wear what I like in the|Ser- vants Hall And|what, to my mind, means the|
 E2 F !fermata!G E C | A2 C =B, C D | C3- C C C | D2 F E D C | D2 F E D C | F2 G A G F | =B3 G3 | %29
w: most of all, I live|out and that is a|lot! _ I can|have my home, and my|glass of port, my ca-|na- ries, yes, and my|pian- o-|
 c2 z z2 z | z2 z !fermata!C3 ||"^a tempo" D2 E F G ^G | A3 d2 _d | c2 A F2 E | D3- D2 C | %35
w: forte!|I|char at five in the|morn- ing, We're|ear- ly birds we|are, _ I|
 D2 E D D C | D2 E D2 C | B2 A ^F2 G | c3- c2 C | D2 E F2 G | ^G2 A d d _d | c2 A F2 E | %42
w: char till one, and when|lunch is done, Then|I be- gin to|char! _ I|char at two; and|three and four, And I|char at five, and|
 _E3- E2 D | d ^c =c B2 G | ^F2 A G2 B | A2 c B A G | F3- F2 z || z6 | z6 | z6 | z2 z z (=B,C) | %51
w: then _ To-|mor- row at five, If|I'm a- live, I|char all o- ver a-|gain! _||||Now _|
 F2 D F2 D | (E3- ED) C | F2 D F2 D | G3- G z C | (A^G) A c =B A | G2 E A2 E | F E F G F D | %58
w: when I char, I|char _ _ With|all my heart and|soul _ In|ev- * 'ry cran- ny and|chink I grope, My|mot- to is, "While there is|
 E2 F G A =B | c2 A c2 A | c3- c (=B,C) | F2 D F2 D | (E3- ED) C | F2 D F2 D | G3- G E C | %65
w: life, there's soap," Why I|char the black off|coal! _ For _|char- ing is an|art, _ _ I've|got a prize for|floors, _ And in|
 A ^G A c =B A | G2 E A2 E | F E F G F D | E2 F !fermata!G2 C | A A C (=B,C) D | C3- C2 C | %71
w: spite of my hav- ing the|House- maids Hip, I|won the Bul- gar- i- an|Cham- pion- ship For|scrub- bing the paint _ off|doors. _ A|
 D2 F E D C | D2 F E2 C | F2 G A2 F | =B3 G3 | c2 z z2 z | z2 z !fermata!C3 || %77
w: house I work'd at col-|lapsed one day, I'd|scrubb'd the base- ment|clean a-|way \-|I|
"^a tempo" D2 E F G ^G | A3 d2 _d | c2 A F2 E | D3- D2 C | D2 E D D C | D2 E D2 C | B2 A ^F2 G | %84
w: char at five in the|morn- ing, We're|ear- ly birds we|are, _ I|char till one, and when|lunch is done, Then|I be- gin to|
 c3- c2 C | D2 E F2 G | ^G2 A d d _d | c2 A F2 E | _E3- E2 D | d ^c =c B2 G | ^F2 A G2 B | %91
w: char! _ I|char at two; and|three and four, And I|char at five, and|then _ To-|mor- row at five, If|I'm a- live, I|
 A2 c B A G | F3- F2 z |] %93
w: char all o- ver a-|gain! _|
V:2
!f! (D |"^sempre leggiero" d)^c=c .[DB] z .[DG] | .[D^F] z .A .[DG] z .[DB] | A z c BAG | %4
 [A,F]3- [A,F]!p! =B,C | [A,F] z D [A,F] z D | [B,E]3- [B,E]DC | [A,F] z D [A,F] z D | G3- GEC | %9
 z2 [CFA] z2 [CA] | [CG]2 E [A,EA]2 E | [A,F] z z [G,DG] z z | [CE] z [CF] GA=B | %13
 !>![CEAc] z z !>![CEAc] z z | !>![CEBc]3- [CEBc]=B,C | [A,F] z D [A,F] z D | [B,E]3- [B,E]DC | %17
 [A,F] z D [A,F] z D | [CG-]3 GEC | z2 [CFA] z2 [CA] | [CG]2 E [A,EA]2 E | [A,F] z z [G,DG] z z | %22
 [CE] z [CF] !fermata![_B,G] z z | [A,CFA] z z =B,CD | [E,C]3- [E,C] z z | [=B,D] z z [CE] z z | %26
 [=B,D] z z [CE] z z | [F,CF]3- [F,CF]3 | [F,=B,F] z z [F,B,F] z z | [G,CE] z C CCC | %30
 C3 !fermata!C3 ||"^a tempo" [G,D]2 E FG^G | (A3 d) z _d | c z A F z E | D3- D z C | %35
 [B,D] z E [B,D] z C | [B,D] z E [B,D] z C | [DEB] z [CEA] [A,^D^F] z [B,EG] | %38
 [CEBc]3- [CEBc] z C | [A,D]2!<(! E F2 G | ^G2 ([FA]!<)! d2) [FA_d] | c z A F z E | _E3- E x (D | %43
 d)^c=c [DB] z [DG] | [D^F] z A [DG] !fermata!z [DB] | A z c BAG | [A,F]3 [FAf] z!f! ((D || %47
 d))^c=c .[DB] z .[DG] | .[D^F] z .A .[DG] z .[DB] | A z c BAG | [A,F]3- [A,F]!p! =B,C | %51
 [A,F] z D [A,F] z D | [B,E]3- [B,E]DC | [A,F] z D [A,F] z D | G3- GEC | z2 [CFA] z2 [CA] | %56
 [CG]2 E [A,EA]2 E | [A,F] z z [G,DG] z z | [CE] z [CF] GA=B | !>![CEAc] z z !>![CEAc] z z | %60
 !>![CEBc]3- [CEBc]=B,C | [A,F] z D [A,F] z D | [B,E]3- [B,E]DC | [A,F] z D [A,F] z D | %64
 [CG-]3 GEC | z2 [CFA] z2 [CA] | [CG]2 E [A,EA]2 E | [A,F] z z [G,DG] z z | %68
 [CE] z [CF] !fermata![_B,G] z z | [A,CFA] z z =B,CD | [E,C]3- [E,C] z z | [=B,D] z z [CE] z z | %72
 [=B,D] z z [CE] z z | [F,CF]3- [F,CF]3 | [F,=B,F] z z [F,B,F] z z | [G,CE] z C CCC | %76
 C3 !fermata!C3 ||"^a tempo" [G,D]2 E FG^G | (A3 d) z _d | c z A F z E | D3- D z C | %81
 [B,D] z E [B,D] z C | [B,D] z E [B,D] z C | [DEB] z [CEA] [A,^D^F] z [B,EG] | %84
 [CEBc]3- [CEBc] z C |!<(! [A,D]2 E F2 G | ^G2 ([FA]!<)! d2) [FA_d] | c z A F z E | _E3- E x (D | %89
 d)^c=c [DB] z [DG] | [D^F] z A [DG] !fermata!z [DB] | A z c BAG | [A,F]3 [FAf] z z |] %93
V:3
 z | D,E,^F, .G, z .B, | .A, z .C .B, z .G, | [C,F,A,] z z C, z z | F,,3- F,, z z | %5
 F,,2 C, C,,2 C, | G,,2 C, C,,2 C, | F,,2 C, C,,2 C, | E,,2 C, C,,2 z | F,,3 (F,3 | E,3 ^C,3 | %11
 D,) z z =B,, z z | C, z D, E, z z | !>!A, z z !>!^F, z z | !>![C,G,]3- [C,G,]=B,,C, | %15
 F,,2 C, C,,2 C, | G,,2 C, C,,2 C, | F,,2 C, C,,2 C, | E,,2 C, C,,2 z | F,,3 (F,3 | E,3 ^C,3 | %21
 D,) z z =B,, z z | C, z D, !fermata![C,E,] z z | [D,,D,] z z [G,,F,] z z | C,,2 G,, E, z z | %25
 [C,_A,] z z [C,G,] z z | [C,_A,] z z [C,G,] z z | =A,,3- A,,3 | G,, z z G,, z z | %29
 [C,,G,,] z z z2 z | z2 z !fermata!C,3 || [F,,D,]2 E, F,G,^G, | (A,3 D) z _D | C z A, F, z E, | %34
 [F,,D,]3- [F,,D,] z z | G,, z C, C,, z C, | G,, z C, C,, z C, | G,, z C, C,, z C, | %38
 G,, z C, C,, z C, | [F,,D,]2 E, F,2 G, | ^G,2 (A, D2) _D | C z A, F, z E, | %42
 [^F,,_E,]3- [F,,E,]2 D, | D,=E,^F, G, z B, | A, z C B, !fermata!z G, | [C,F,A,] z z C, z z | %46
!ped! F,,3 [C,A,C]!ped-up! z z || D,E,^F, .G, z .B, | .A, z .C .B, z .G, | [C,F,A,] z z C, z z | %50
 F,,3- F,, z z | F,,2 C, C,,2 C, | G,,2 C, C,,2 C, | F,,2 C, C,,2 C, | E,,2 C, C,,2 z | F,,3 (F,3 | %56
 E,3 ^C,3 | D,) z z =B,, z z | C, z D, E, z z | !>!A, z z !>!^F, z z | !>![C,G,]3- [C,G,]=B,,C, | %61
 F,,2 C, C,,2 C, | G,,2 C, C,,2 C, | F,,2 C, C,,2 C, | E,,2 C, C,,2 z | F,,3 (F,3 | E,3 ^C,3 | %67
 D,) z z =B,, z z | C, z D, !fermata![C,E,] z z | [D,,D,] z z [G,,F,] z z | C,,2 G,, E, z z | %71
 [C,_A,] z z [C,G,] z z | [C,_A,] z z [C,G,] z z | =A,,3- A,,3 | G,, z z G,, z z | %75
 [C,,G,,] z z z2 z | z2 z !fermata!C,3 || [F,,D,]2 E, F,G,^G, | (A,3 D) z _D | C z A, F, z E, | %80
 [F,,D,]3- [F,,D,] z z | G,, z C, C,, z C, | G,, z C, C,, z C, | G,, z C, C,, z C, | %84
 G,, z C, C,, z C, | [F,,D,]2 E, F,2 G, | ^G,2 (A, D2) _D | C z A, F, z E, | %88
 [^F,,_E,]3- [F,,E,]2 D, | D,=E,^F, G, z B, | A, z C B, !fermata!z G, | [C,F,A,] z z C, z z | %92
!ped! F,,3 [C,A,C]!ped-up! z z |] %93
V:4
 x | x6 | x6 | [C=F] x2 [B,E] x2 | x6 | x6 | x6 | x6 | C z z x3 | x6 | x6 | x6 | x3 C z z | x6 | %14
 x6 | x6 | x6 | x6 | x6 | x6 | x6 | x6 | x6 | x6 | x6 | x6 | x6 | x6 | x6 | x6 | x6 || x6 | %32
 z2 F z2 [FA] | x2 [CF] x2 [A,C] | x2 [F,A,] [F,A,] x2 | x6 | x6 | x6 | x6 | x6 | x6 | %41
 z2 [CF] z2 [A,C] | z2 [A,C] [A,C] z z | x6 | x6 | [C=F] z z [B,E] z z | x6 || x6 | x6 | %49
 [C=F] x2 [B,E] x2 | x6 | x6 | x6 | x6 | C z z x3 | x6 | x6 | x6 | x3 C z z | x6 | x6 | x6 | x6 | %63
 x6 | x6 | x6 | x6 | x6 | x6 | x6 | x6 | x6 | x6 | x6 | x6 | x6 | x6 || x6 | z2 F z2 [FA] | %79
 x2 [CF] x2 [A,C] | x2 [F,A,] [F,A,] x2 | x6 | x6 | x6 | x6 | x6 | x6 | z2 [CF] z2 [A,C] | %88
 z2 [A,C] [A,C] z z | x6 | x6 | [C=F] z z [B,E] z z | x6 |] %93

